images/light/info.svg

<svg height="16" viewBox="0 0 16 16" width="16" xmlns="http://www.w3.org/2000/svg"><path d="m13.917 8.5c0-3.59-2.668-6.5-5.959-6.5-3.29 0-5.958 2.91-5.958 6.5s2.668 6.5 5.958 6.5c3.291 0 5.959-2.91 5.959-6.5z" fill="#646465"/><g fill="#c5c5c5"><path d="m9 5c0-.552-.448-1-1-1s-1 .448-1 1 .448 1 1 1 1-.448 1-1z"/><path d="m7 12h2v-5h-2z"/></g></svg>

<?xml version="1.0" encoding="UTF-8"?>
<svg width="16px" height="16px" viewBox="0 0 16 16" xmlns="http://www.w3.org/2000/svg" xmlns:xlink="http://www.w3.org/1999/xlink" version="1.1">
 <!-- Generated by Pixelmator Pro 1.2.4 -->
 <path id="path" d="M13.917 8.5 C13.917 4.91 11.249 2 7.958 2 4.668 2 2 4.91 2 8.5 2 12.09 4.668 15 7.958 15 11.249 15 13.917 12.09 13.917 8.5 Z" fill="#646465" fill-opacity="1" stroke="none"/>
 <path id="path-1" d="M9 5 C9 4.448 8.552 4 8 4 7.448 4 7 4.448 7 5 7 5.552 7.448 6 8 6 8.552 6 9 5.552 9 5 Z" fill="#c5c5c5" fill-opacity="1" stroke="none"/>
 <path id="path-2" d="M7 12 L9 12 9 7 7 7 Z" fill="#c5c5c5" fill-opacity="1" stroke="none"/>
</svg>
